!!!COM: Music21
!!!OTL: Mazurca
!!!OMV: pezas_mazurcas_mazurca-8_mazurca-partitura.musicxml
**kern
*part1
*staff1
*I"Bagpipes
*I'Bag
*clefG^2
*k[b-]
*F:
*M3/4
=1
!LO:TX:a:t=Allegretto
*MM120
!LO:TX:a:t=[quarter]=120
2r
8.ccL
16ffJk
=||
4aa
4ff
8.eeL
16ffJk
=
4gg
4ee
8.ggL
16aaJk
=
4bb-
8ggL
8bb-J
8ggL
8bb-J
=
4aa
.
4ff
.
8.ccL
16ffJk
=
4aa
4ff
8.eeL
16ffJk
=
4gg
4ee
8.ggL
16aaJk
!!linebreak:original
=
4bb-
8ggL
8bb-J
8ggL
8eeJ
!!linebreak:original
=
2ff
8.ccL
16ffJk
=||
4aa
4ff
8.eeL
16ffJk
=
4gg
4ee
8.ggL
16aaJk
=
4bb-
8ggL
8bb-J
8ggL
8bb-J
=
4aa
.
4ff
.
8.ccL
16ffJk
=
4aa
4ff
8.eeL
16ffJk
=
4gg
4ee
8.ggL
16aaJk
=
4bb-
8ggL
8bb-J
8ggL
8eeJ
!!linebreak:original
=
2ff
8.aaL
16bb-Jk
=||
4ccc
4ccc
8.dddL
16cccJk
=
4bb-
4gg
8.ggL
16aaJk
=
4bb-
8ggL
8bb-J
8ggL
8bb-J
=
4aa
.
4ff
.
8.aaL
16bb-Jk
=
4ccc
4ccc
8.dddL
16cccJk
=
4bb-
4gg
8.ggL
16aaJk
=
4bb-
8ggL
8bb-J
8ggL
8eeJ
!!linebreak:original
=
2ff
8.aaL
16bb-Jk
=||
4ccc
4ccc
8.dddL
16cccJk
=
4bb-
4gg
8.ggL
16aaJk
=
4bb-
8ggL
8bb-J
8ggL
8bb-J
=
4aa
.
4ff
.
8.aaL
16bb-Jk
=
4ccc
4ccc
8.dddL
16cccJk
=
4bb-
4gg
8.ggL
16aaJk
=
4bb-
8ggL
8bb-J
8ggL
8eeJ
!!linebreak:original
=
2ff
8.ccL
16ffJk
=||
*-
!!!system-decoration: s1,s2
